!!!SOCIAL_FUNCTION:	arapaho song of the world war
!!!PDT:	1936
!!!OTL: No_21_Arapaho_Song_of_the_World_War_(a).krn
!!!REG: Oklahoma and Montana
!!!LANG: Tone
!!!LING_GROUP: Algonquin
**kern	**kern
*staff2	*staff1
=1-	=1-
=	=
*clefF4	*clefF4
*k[f#c#g#d#]	*k[f#c#g#d#]
*M2/4	*M2/4
2r	16e\LK
.	8.e\J
.	8.e\L
.	16e\Jk
=2	=2
2r	12e\L
.	12B\
.	12B\J
.	8.B\L
.	16G#\Jk
=3	=3
2r	16e\LK
.	8.e\J
.	8.e\L
.	16e\Jk
=4	=4
2r	12e\L
.	12B\
.	12B\J
.	8B\L
.	16B\Jk
.	16r
=5	=5
2r	16B\LK
.	8.A\J
.	8.A\L
.	16A\Jk
=6	=6
2r	16A\LK
.	8.G#\J
.	8.G#\L
.	16G#\Jk
=7	=7
2r	16E\LK
.	8.E\J
.	8E\L
.	16E\Jk
.	16r
=8	=8
2r	16G#\LK
.	8.G#\J
.	8.G#\L
.	16G#\Jk
=9	=9
2r	16E\LK
.	8.E\J
.	8.E/L
.	16BB/Jk
=10	=10
2r	8E\L
.	8E\J
.	8.E\L
.	16E\Jk
=11	=11
*M5/8	*M5/8
3...r	8E\L
.	16E\L
.	16E\J
.	8E\
.	16E\Jk
.	8.r
=12	=12
*M3/4	*M3/4
2.r	8E\L
.	8B\J
.	16B\LK
.	8.B\J
.	8.B\L
.	16B\Jk
=13	=13
*M2/4	*M2/4
2r	16A\LK
.	8.A\J
.	8.A\L
.	16B\Jk
=14	=14
2r	16G#\LK
.	8.G#\J
.	8.G#\L
.	16E\Jk
=15	=15
2r	16E\LK
.	8.E\J
.	8E\
.	16r
.	16B\
=16	=16
2r	16G#\LK
.	8.G#\J
.	8.G#\L
.	16E\Jk
=17	=17
*M3/4	*M3/4
2.r	16E\LK
.	8.E\J
.	8BB/
.	16r
.	16E\
.	16E\LL
.	16E\J
.	8E\J
=18	=18
2.r	16E\LK
.	8.E\J
.	(16E\LK
.	8BB\)
.	16E\Jk
.	(16E/LK
.	8.BB/J)
==:|!	==:|!
*-	*-
